Backend/Portfolio2017/Images/svg/hamburger-icon-blue.svg

<svg xmlns="http://www.w3.org/2000/svg" width="50" height="50" viewBox="0 0 50 50">
    <path fill="#150c6d" style="text-indent:0;text-align:start;line-height:normal;text-transform:none;block-progression:tb;-inkscape-font-specification:Bitstream Vera Sans" d="M 0 7.5 L 0 12.5 L 50 12.5 L 50 7.5 L 0 7.5 z M 0 22.5 L 0 27.5 L 50 27.5 L 50 22.5 L 0 22.5 z M 0 37.5 L 0 42.5 L 50 42.5 L 50 37.5 L 0 37.5 z" color="#150c6d" overflow="visible" enable-background="accumulate" font-family="Bitstream Vera Sans"></path>
</svg>

<svg xmlns="http://www.w3.org/2000/svg" width="50" height="50" viewBox="0 0 50 50"><path fill="#150c6d" style="text-indent:0;text-align:start;line-height:normal;text-transform:none;block-progression:tb;-inkscape-font-specification:Bitstream Vera Sans" d="M0 7.5v5h50v-5H0zm0 15v5h50v-5H0zm0 15v5h50v-5H0z" color="#150c6d" overflow="visible" font-family="Bitstream Vera Sans"/></svg>
